X:1
T:Ego ipse consolabor vos
T:Ludwig Senfl
T:Source : Bicinia---Tomus I---Wittemberg---G.Rhau---1545. Editor : André Vierendeels (16/06/17).
T:Notes : Original clefs : G2 , C2 Original note values have been halved Editorial accidentals above the staff Square brackets indicate ligatures Dotted brackets indicate black note 
T:Ego ipse consolabor vos
T:©
T:©
T:©
C:Ludwig Senfl
Z:©
%%score [ 1 2 ]
L:1/8
Q:1/4=120
M:2/2
K:F
V:1 treble nm="Soprano" snm="S"
V:2 treble nm="Alto" snm="A"
V:1
 z8 | F4 G4 | A4 z2 F2 | G4 A4 | z2 B2 c4 | d4 z2 d2 | d2 dd d4 | z2 A4 A2 | A4 z2 d2 | %9
w: |E- go,|_ e-|go _|i- pse|_ con|so- la- bor vos,|quis tu|es ut|
 dcde f2 d2 | z2 d2 dcde | f2 d2 z2 d2- | dcdB c2 d2- |"^#" d2 c2 d4- | d4 z2 d2 | d2 d2 d4 | %16
w: ti- * * * me- as|ab ho- * * *|mi- ne mor-|* * * * * ta-|* * li|_ a|fi- li- o|
 z2 d2 dcde | f3 e d2 c2 | d8 | z2 A4 A2 | A4 z2 A2 | AGAB c3 B | A2 G2 A2 A2 | BABG A3 G | %24
w: ho- mi- * * *||nis,|qui qua-|si foe-|num _ _ _ i- ta|a- re- scet, o-|bli- * * * * *|
 F2 E2 D4- | D4 z2 d2 | c4 z2 B2 | c2 d6 | c4 B4 | A4 G4 | z2 d2 c2 B2 | c4 d4 | c4 B2 A2- | %33
w: * tus es|_ De-|i fa-|cto- ris|tu- *|i, _|qui te- ten-|dit coe-|los et fun-|
 AG G3 F F2 | E2 D3 E FG | A2 G3 ABc | d2 A3 Bcd | e2 d3 e f2 | e2 d3 cAB | c4 B2 A2- | AG G4 F2 | %41
w: * * da- vit ter-|* ram, _ _ _|e- go _ _ _|sum _ _ _ _|Do- * * mi-|nus _ _ _ _|De- us ve-||
 G8 |] %42
w: ster|
V:2
 B,4 C4 | D4 z2 B,2 | C4 D4 | z4 z2 F2 | G4 A4 | z2 G2 G2 GG | G4 z2 D2- | D2 D2 D4 | z2 D2 DCDE | %9
w: E- go,|_ e-|go, _|i-|pse _|con- so- la- bor|vos, quis|_ tu es|ut ti- * * *|
 F2 D2 z2 G2 | GFGA B2 G2 | z2 G3 F G2 | DEFG E2 D2 | E4 D4 | z2 G2 G2 G2 | G4 z2 G2- | GFGA BABG | %17
w: me- as, ab|ho- * * * mi- ne,|mor- * *||ta- lis,|a fi- li-|o ho-||
 A3 G F2 E2 | D4 z2 D2- | D2 D2 D4 | z2 D2 DCDE | FEFG A3 G | F2 E2 D2 D2 | DCDE F3 E | D2 C2 D4 | %25
w: * * * mi-|nis, qui|_ qua- si|foe- num _ _ _|i- * * * ta a-|re- scet o- bli-||* tus es,|
 A4 z4 | z2 A2 G4 | z2 F2 G4 | A4 G4 | F4 E4 | D4 A2 G2 | F2 A2 G2 F2- | F2 E2 D2 C2- | %33
w: _|De- i|fa- cto-|ris tu-|* i,|_ te- ten-|dit coe- * *|* los et fun-|
 CB, B,2 A,4 | G,3 A, B,C D2 | C3 D EF G2 |"^#" D3 E FG A2 | G3 A B2 A2 | G3 F DE F2- | %39
w: * da- vit ter-|ram, _ _ _ _|e- * * * go|sum _ _ _ _|Do- * * mi-|nus _ _ _ De-|
 F2 E2 D3 C- | CB,A,G, A,4 | G,8 |] %42
w: * us ve- *||ster.|

